public/logos/sony.svg

<svg width="1136" height="200" viewBox="0 0 1136 200" fill="none" xmlns="http://www.w3.org/2000/svg">
<g clip-path="url(#clip0_36_236)">
<path d="M404.643 200C363.52 200 325.35 187.727 299.904 164.773C281.501 148.182 271.05 124.545 271.277 99.7727C271.277 75.2273 281.501 51.5909 299.904 35C323.533 13.6364 365.338 0 404.643 0C448.266 0 483.027 10.9091 509.61 35.2273C527.786 51.8182 538.01 75.4545 537.782 100C537.555 124.545 527.558 147.955 509.61 165C484.845 187.955 445.994 200 404.643 200V173.636C426.454 173.636 446.675 166.136 460.989 152.045C475.302 137.955 481.664 120.909 481.664 99.7727C481.664 79.5455 474.621 60.9091 460.989 47.5C447.13 33.6364 426.227 25.9091 404.643 25.9091C383.059 25.9091 362.384 33.6364 348.298 47.5C334.893 60.9091 327.85 79.7727 327.85 99.7727C327.395 119.318 334.893 137.955 348.298 152.045C362.157 165.909 383.059 173.636 404.643 173.636V200ZM104.058 0C82.0192 0 57.0272 4.09091 35.8976 13.6364C16.1312 22.5 0 36.5909 0 60C0 72.2727 4.544 84.3182 13.1776 93.1818C18.8576 98.4091 28.1728 107.5 52.0288 112.727C62.7072 115 85.6544 118.636 108.602 121.136C131.549 123.636 153.587 125.682 162.675 128.182C169.946 130 181.987 132.5 181.987 146.136C181.987 159.773 169.264 163.864 166.992 164.773C164.72 165.682 149.498 172.727 121.779 172.727C103.603 172.273 85.4272 169.091 67.9328 163.409C57.7088 159.773 46.8032 154.773 36.8064 142.5C32.7168 136.818 30.4448 129.773 30.2176 122.727H5.2256V192.727H32.944V183.182C32.944 180.909 34.7616 179.318 36.8064 179.091C37.488 179.091 38.1696 179.318 38.8512 179.773C52.0288 185.455 65.4336 189.773 79.52 192.955C94.0608 195.909 103.603 198.182 121.552 198.182C140.637 198.636 159.722 195.909 178.125 190.227C190.166 186.818 201.754 181.364 211.75 173.636C223.11 164.773 229.926 151.136 229.699 136.818C229.699 123.409 224.474 110.227 215.158 100.682C209.933 95.6818 203.798 91.3636 197.21 88.4091C190.166 85.2273 182.669 82.5 175.171 80.6818C160.858 77.0455 128.368 72.7273 112.918 71.1364C96.7872 69.5455 68.6144 67.0455 57.2544 63.6364C53.8464 62.5 46.8032 59.3182 46.8032 51.1364C46.8032 45.4545 49.984 40.4545 56.3456 36.5909C66.3424 30.2273 86.5632 26.3636 107.466 26.3636C127.686 26.1364 147.907 30 166.765 37.9545C171.763 40.2273 176.534 42.9545 180.851 46.3636C187.894 52.2727 192.666 60.4545 194.71 69.5455H217.203V8.86364H192.211V15.9091C192.211 18.1818 189.939 21.1364 185.395 18.6364C174.49 12.9545 142.682 0.227273 104.058 0ZM652.518 11.1364L774.752 121.364L773.616 47.0455C773.389 37.2727 771.798 33.1818 761.12 33.1818H738.173V11.1364H842.685V33.4091H820.192C809.514 33.4091 808.832 36.8182 808.605 47.2727L810.422 189.091H774.752L634.115 63.4091V152.5C634.115 162.273 634.57 166.818 644.566 166.818H669.558V189.091H567.091V166.818H591.174C600.035 166.818 599.808 158.182 599.808 152.045V47.9545C599.808 41.1364 598.899 33.4091 584.813 33.4091H565.274V11.1364H652.518ZM961.965 166.818C964.01 166.818 966.054 166.591 968.099 166.364C970.144 165.682 971.962 164.091 972.87 162.045C973.098 160.455 973.325 158.864 973.325 157.273V122.273C973.325 121.136 973.325 121.136 971.734 119.318C970.144 117.5 907.664 46.5909 904.938 43.4091C901.302 39.5455 895.168 33.6364 885.626 33.6364H864.042V11.1364H986.502V33.4091H971.734C968.326 33.4091 966.054 36.5909 969.008 40.2273C969.008 40.2273 1010.13 89.5455 1010.59 90C1011.04 90.4545 1011.27 90.6818 1011.72 90.2273C1012.18 89.7727 1053.98 40.6818 1054.21 40.2273C1055.57 38.4091 1055.34 35.6818 1053.3 34.3182C1052.39 33.6364 1051.48 33.4091 1050.57 33.4091H1035.35V11.1364H1136V33.4091H1113.51C1105.33 33.4091 1102.15 35 1096.01 41.8182L1028.31 118.864C1027.63 119.773 1027.4 120.909 1027.4 122.045V157.045C1027.4 158.636 1027.63 160.227 1027.85 161.818C1028.76 163.864 1030.58 165.455 1032.62 166.136C1034.67 166.364 1036.71 166.591 1038.76 166.591H1061.71V188.864H939.926V166.591L961.965 166.818Z" fill="white"/>
</g>
<defs>
<clipPath id="clip0_36_236">
<rect width="1136" height="200" fill="white"/>
</clipPath>
</defs>
</svg>

<svg xmlns="http://www.w3.org/2000/svg" width="1136" height="200" fill="none"><g clip-path="url(#a)"><path fill="#fff" d="M404.643 200c-41.123 0-79.293-12.273-104.739-35.227-18.403-16.591-28.854-40.228-28.627-65 0-24.546 10.224-48.182 28.627-64.773 23.629-21.364 65.434-35 104.739-35 43.623 0 78.384 10.91 104.967 35.227 18.176 16.591 28.4 40.228 28.172 64.773s-10.224 47.955-28.172 65c-24.765 22.955-63.616 35-104.967 35v-26.364c21.811 0 42.032-7.5 56.346-21.591 14.313-14.09 20.675-31.136 20.675-52.272 0-20.227-7.043-38.864-20.675-52.273-13.859-13.864-34.762-21.59-56.346-21.59s-42.259 7.726-56.345 21.59c-13.405 13.41-20.448 32.273-20.448 52.273-.455 19.545 7.043 38.182 20.448 52.272 13.859 13.864 34.761 21.591 56.345 21.591zM104.058 0c-22.039 0-47.03 4.09-68.16 13.636C16.13 22.5 0 36.591 0 60c0 12.273 4.544 24.318 13.178 33.182 5.68 5.227 14.995 14.318 38.85 19.545 10.68 2.273 33.626 5.909 56.574 8.409 22.947 2.5 44.985 4.546 54.073 7.046 7.271 1.818 19.312 4.318 19.312 17.954s-12.723 17.728-14.995 18.637-17.494 7.954-45.213 7.954c-18.176-.454-36.352-3.636-53.846-9.318-10.224-3.636-21.13-8.636-31.127-20.909-4.09-5.682-6.361-12.727-6.588-19.773H5.226v70h27.718v-9.545c0-2.273 1.818-3.864 3.862-4.091q1.023 0 2.045.682c13.178 5.682 26.583 10 40.669 13.182 14.54 2.954 24.083 5.227 42.032 5.227 19.085.454 38.17-2.273 56.573-7.955 12.041-3.409 23.629-8.863 33.625-16.591 11.36-8.863 18.176-22.5 17.949-36.818 0-13.409-5.225-26.591-14.541-36.136-5.225-5-11.36-9.318-17.948-12.273-7.044-3.182-14.541-5.909-22.039-7.727-14.313-3.636-46.803-7.955-62.253-9.546-16.13-1.59-44.304-4.09-55.664-7.5-3.408-1.136-10.45-4.318-10.45-12.5 0-5.681 3.18-10.681 9.542-14.545 9.996-6.364 30.217-10.227 51.12-10.227 20.22-.228 40.441 3.636 59.299 11.59 4.998 2.273 9.769 5 14.086 8.41 7.043 5.909 11.815 14.09 13.859 23.182h22.493V8.864h-24.992v7.045c0 2.273-2.272 5.227-6.816 2.727C174.49 12.955 142.682.227 104.058 0m548.46 11.136 122.234 110.228-1.136-74.318c-.227-9.773-1.818-13.864-12.496-13.864h-22.947V11.136h104.512V33.41h-22.493c-10.678 0-11.36 3.41-11.587 13.864l1.817 141.818h-35.67L634.115 63.409V152.5c0 9.773.455 14.318 10.451 14.318h24.992v22.273H567.091v-22.273h24.083c8.861 0 8.634-8.636 8.634-14.773V47.955c0-6.819-.909-14.546-14.995-14.546h-19.539V11.136zm309.447 155.682c2.045 0 4.089-.227 6.134-.454 2.045-.682 3.863-2.273 4.771-4.319.228-1.59.455-3.181.455-4.772v-35c0-1.137 0-1.137-1.591-2.955s-64.07-72.727-66.796-75.909c-3.636-3.864-9.77-9.773-19.312-9.773h-21.584v-22.5h122.46V33.41h-14.768c-3.408 0-5.68 3.182-2.726 6.818 0 0 41.122 49.319 41.582 49.773.45.454.68.682 1.13.227.46-.454 42.26-49.545 42.49-50 1.36-1.818 1.13-4.545-.91-5.909a4.38 4.38 0 0 0-2.73-.909h-15.22V11.136H1136V33.41h-22.49c-8.18 0-11.36 1.591-17.5 8.41l-67.7 77.045c-.68.909-.91 2.045-.91 3.181v35c0 1.591.23 3.182.45 4.773.91 2.046 2.73 3.637 4.77 4.318 2.05.228 4.09.455 6.14.455h22.95v22.273H939.926v-22.273z"/></g><defs><clipPath id="a"><path fill="#fff" d="M0 0h1136v200H0z"/></clipPath></defs></svg>
